logo/tsnode.svg

<?xml version="1.0" encoding="UTF-8"?>
<svg width="512px" height="190px" viewBox="0 0 512 190" version="1.1" xmlns="http://www.w3.org/2000/svg" xmlns:xlink="http://www.w3.org/1999/xlink" preserveAspectRatio="xMidYMid">
    <title>ts-node</title>
    <defs>
        <path d="M78.6456809,1.20093698 L4.48150796,44.0083317 C1.70687665,45.6065193 0,48.5648504 0,51.7650527 L0,51.7650527 L0,137.45026 C0,140.651994 1.70687665,143.608028 4.47768089,145.210808 L4.47768089,145.210808 L78.6418538,188.053412 C81.4149543,189.654662 84.8317693,189.654662 87.6064006,188.053412 L87.6064006,188.053412 L161.785116,145.210808 C164.558217,143.608028 166.265094,140.651994 166.265094,137.45026 L166.265094,137.45026 L166.265094,51.7681144 C166.265094,48.5648504 164.558217,45.6065193 161.783586,44.0083317 L161.783586,44.0083317 L87.6018081,1.20093698 C86.216406,0.398781494 84.671032,0 83.1225964,0 L83.1225964,0 C81.576457,0 80.0287868,0.398781494 78.6456809,1.20093698 L78.6456809,1.20093698 Z" id="tsnode-path-1"></path>
    </defs>
    <g>
				<path d="M78.6450686,1.20017156 L4.48089563,44.0075663 C1.70702973,45.6065193 0.000153083107,48.5648504 0.000153083107,51.7642873 L0.000153083107,137.45026 C0.000153083107,140.651994 1.70702973,143.608028 4.47783397,145.210808 L78.6412415,188.053412 C81.414342,189.653896 84.831157,189.653896 87.6057883,188.053412 L161.78527,145.210808 C164.55837,143.608028 166.265247,140.651994 166.265247,137.45026 L166.265247,51.7681144 C166.265247,48.5648504 164.55837,45.6065193 161.783739,44.0075663 L87.6019612,1.20017156 C86.2165591,0.398781494 84.6704197,0 83.1227495,0 C81.5766101,0 80.0289399,0.398781494 78.6450686,1.20017156" fill="#2261A8"></path>
				<g transform="translate(0.000000, 0.411487)">
						<mask id="mask-2" fill="white">
								<use xlink:href="#tsnode-path-1"></use>
						</mask>
						<polygon fill="#FFFFFF" mask="url(#mask-2)" points="50.1138218 182.64866 67.556111 182.64866 67.556111 113.254557 91.7256374 113.254557 91.7256374 97.9301723 25.9442954 97.9301723 25.9442954 113.254557 50.1138218 113.254557"></polygon>
						<path d="M128.221416,183.769917 C144.791131,183.769917 157.125037,175.173535 157.125037,159.475628 C157.125037,144.899055 148.778181,138.420578 133.952078,132.066863 L129.591509,130.197718 C122.116461,126.95848 118.877223,124.840575 118.877223,119.608195 C118.877223,115.372385 122.116461,112.133146 127.224845,112.133146 C132.208465,112.133146 135.447704,114.251051 138.437417,119.608195 L152.017419,110.88705 C146.286753,100.795812 138.312654,96.9335247 127.224845,96.9335247 C111.6517,96.9335247 101.684459,106.900766 101.684459,119.981717 C101.684459,134.184768 110.032081,140.912005 122.614747,146.269914 L126.975319,148.138293 C134.949418,151.627057 139.683513,153.744962 139.683513,159.725154 C139.683513,164.708009 135.073415,168.321536 127.847893,168.321536 C119.251511,168.321536 114.392653,163.8362 110.655129,157.731246 L96.4520783,165.954105 C101.559696,176.045344 112.025223,183.769917 128.221416,183.769917 Z" fill="#FFFFFF" mask="url(#mask-2)"></path>
				</g>
				<g transform="translate(189.495608, 59.044595)">
						<path d="M69.2126999,66.0140473 C69.2126999,64.6722738 68.5062213,63.438424 67.3481476,62.7732779 L36.4697541,45.0033908 C35.9477407,44.6964592 35.3621978,44.5357219 34.7697661,44.511994 L34.4505879,44.511994 C33.8604525,44.5357219 33.275675,44.6956938 32.7452421,45.0033908 L1.86684849,62.7732779 C0.715663526,63.438424 0,64.6722738 0,66.0140473 L0.0681219827,113.864 C0.0681219827,114.529911 0.41332439,115.148367 0.99963269,115.475199 C1.57292893,115.818871 2.2809383,115.818871 2.85193829,115.475199 L21.2027758,104.966809 C22.3631457,104.27717 23.0696243,103.06169 23.0696243,101.731398 L23.0696243,79.3759063 C23.0696243,78.0433178 23.7753374,76.809468 24.9318803,76.1473836 L32.7452421,71.6467402 C33.3284887,71.3099574 33.964549,71.1461585 34.6151522,71.1461585 C35.2512125,71.1461585 35.904112,71.3099574 36.4697541,71.6467402 L44.281585,76.1473836 C45.4373625,76.809468 46.1461373,78.0433178 46.1461373,79.3759063 L46.1461373,101.731398 C46.1461373,103.06169 46.8618008,104.28559 48.015282,104.966809 L66.3607616,115.475199 C66.9371195,115.818871 67.6558447,115.818871 68.2260792,115.475199 C68.7940176,115.148367 69.152232,114.529911 69.152232,113.864 L69.2126999,66.0140473 Z" fill="#333333"></path>
						<path d="M217.788658,0.235766933 C217.210769,-0.0857075918 216.505056,-0.0780534364 215.934056,0.256433153 C215.364587,0.591685158 215.014026,1.20325217 215.014026,1.86457119 L215.014026,49.2522125 C215.014026,49.7175851 214.764501,50.1492795 214.362658,50.3827312 C213.958518,50.6161829 213.460998,50.6161829 213.056859,50.3827312 L205.322335,45.9272474 C204.168854,45.2621013 202.749008,45.2628667 201.596292,45.9287782 L170.705652,63.755306 C169.55064,64.4212176 168.840334,65.6527711 168.840334,66.9853596 L168.840334,102.646069 C168.840334,103.979423 169.55064,105.210211 170.704886,105.877654 L201.59323,123.718725 C202.748242,124.384636 204.170384,124.384636 205.324631,123.718725 L236.219098,105.877654 C237.37258,105.210211 238.083651,103.979423 238.083651,102.646069 L238.083651,13.7507091 C238.083651,12.3997506 237.351913,11.1521233 236.170112,10.4931005 L217.788658,0.235766933 Z M214.922177,90.9298538 C214.922177,91.2620442 214.7446,91.5705066 214.456038,91.7358364 L203.849675,97.8499757 C203.561879,98.0153054 203.206726,98.0153054 202.918165,97.8499757 L192.312567,91.7358364 C192.02324,91.5705066 191.846429,91.2620442 191.846429,90.9298538 L191.846429,78.6832052 C191.846429,78.3502495 192.02324,78.041787 192.311802,77.8749264 L202.917399,71.7485405 C203.206726,71.5816799 203.561879,71.5816799 203.851206,71.7485405 L214.456804,77.8749264 C214.7446,78.041787 214.922177,78.3502495 214.922177,78.6832052 L214.922177,90.9298538 Z" fill="#333333"></path>
						<path d="M320.648259,78.362343 C321.797148,77.6949007 322.504392,76.4664088 322.504392,75.1376474 L322.504392,66.4953406 C322.504392,65.1665792 321.797148,63.9365564 320.646728,63.2691141 L289.955096,45.449475 C288.800849,44.7782056 287.37488,44.7766747 286.217572,45.4456479 L255.337648,63.2721757 C254.184932,63.9388527 253.473095,65.1696409 253.473095,66.5022293 L253.473095,102.15452 C253.473095,103.495528 254.193351,104.732439 255.357548,105.394524 L286.045354,122.881207 C287.176638,123.527218 288.563571,123.534872 289.702509,122.901873 L308.263836,112.584837 C308.85244,112.258005 309.219074,111.639549 309.222136,110.967514 C309.226728,110.294714 308.870045,109.671666 308.286798,109.337179 L277.211693,91.5007007 C276.630742,91.167745 276.274824,90.5500546 276.274824,89.8818469 L276.274824,78.7090763 C276.274824,78.0431648 276.629977,77.4262398 277.207866,77.0940495 L286.878891,71.5179973 C287.454484,71.185807 288.165555,71.185807 288.740382,71.5179973 L298.416765,77.0940495 C298.995419,77.4262398 299.350572,78.0431648 299.350572,78.7090763 L299.350572,87.4998737 C299.350572,88.1680815 299.707255,88.784241 300.285144,89.1171967 C300.863798,89.4509179 301.575635,89.4486217 302.151993,89.1126042 L320.648259,78.362343 Z" fill="#333333"></path>
						<path d="M287.631141,76.6923594 C287.852347,76.5637696 288.1256,76.5637696 288.346805,76.6923594 L294.274183,80.112236 C294.496153,80.2400604 294.632397,80.4758084 294.632397,80.7322226 L294.632397,87.5765684 C294.632397,87.8322171 294.496153,88.0687305 294.274183,88.1965549 L288.346805,91.6164316 C288.1256,91.7442559 287.852347,91.7442559 287.631141,91.6164316 L281.708356,88.1965549 C281.487151,88.0687305 281.350142,87.8322171 281.350142,87.5765684 L281.350142,80.7322226 C281.350142,80.4758084 281.487151,80.2400604 281.708356,80.112236 L287.631141,76.6923594 Z" fill="#2261A8"></path>
						<path d="M117.172948,45.6293476 L86.5417841,63.3096811 C85.3959571,63.9702347 84.6910094,65.1918379 84.6910094,66.5137105 L84.6910094,101.903463 C84.6910094,103.226101 85.3959571,104.446939 86.5402533,105.109024 L117.171418,122.8039 C118.316479,123.464454 119.727906,123.464454 120.873733,122.8039 L151.511786,105.109024 C152.656847,104.446939 153.361795,103.226101 153.361795,101.903463 L153.361795,66.5152414 C153.361795,65.1918379 152.656847,63.9702347 151.51102,63.3096811 L120.872202,45.6293476 C120.300436,45.2986881 119.661314,45.1333584 119.022192,45.1333584 C118.383836,45.1333584 117.744714,45.2986881 117.172948,45.6293476" fill="#2261A8"></path>
				</g>
    </g>
</svg>

<svg viewBox="0 0 512 190" xmlns="http://www.w3.org/2000/svg" xmlns:xlink="http://www.w3.org/1999/xlink"><defs><mask id="a"><use fill="#FFF" xlink:href="#c"/></mask><mask id="b"><use fill="#FFF" xlink:href="#c"/></mask><path id="c" d="M78.64 1.2L4.47 44c-2.78 1.59-4.49 4.55-4.49 7.75v0 85.68c0 3.2 1.7 6.15 4.47 7.76v0l74.16 42.84c2.77 1.6 6.18 1.6 8.96 0v0l74.17-42.85c2.77-1.61 4.47-4.56 4.47-7.77v0V51.72c0-3.21-1.71-6.17-4.49-7.76v0L87.53 1.15C86.14.34 84.59-.06 83.05-.06v0c-1.55 0-3.1.39-4.48 1.2v0Z"/></defs><path fill="#2261A8" d="M78.64 1.2L4.47 44c-2.78 1.59-4.49 4.55-4.49 7.75v85.68c0 3.2 1.7 6.15 4.47 7.76l74.16 42.84c2.77 1.6 6.18 1.6 8.96 0l74.17-42.85c2.77-1.61 4.47-4.56 4.47-7.77V51.72c0-3.21-1.71-6.17-4.49-7.77L87.53 1.14C86.14.33 84.59-.07 83.05-.07c-1.55 0-3.1.39-4.48 1.2"/><g transform="translate(0 .411487)"><g fill="#FFF"><path mask="url(#a)" d="M50.11 182.64l17.44 0 0-69.4 24.16 0 0-15.33 -65.79 0 0 15.32 24.16 0Z"/><path mask="url(#b)" d="M128.22 183.76c16.56 0 28.9-8.6 28.9-24.3 0-14.58-8.35-21.06-23.18-27.41l-4.37-1.87c-7.48-3.24-10.72-5.36-10.72-10.59 0-4.24 3.23-7.48 8.34-7.48 4.98 0 8.22 2.11 11.21 7.47l13.58-8.73c-5.74-10.1-13.71-13.96-24.8-13.96 -15.58 0-25.55 9.96-25.55 23.04 0 14.2 8.34 20.93 20.93 26.28l4.36 1.86c7.97 3.48 12.7 5.6 12.7 11.58 0 4.98-4.62 8.59-11.84 8.59 -8.6 0-13.46-4.49-17.2-10.6l-14.21 8.22c5.1 10.09 15.57 17.81 31.76 17.81Z"/></g></g><g transform="translate(189.496 59.0446)"><g fill="#333"><path d="M69.21 66.01c0-1.35-.71-2.58-1.87-3.25L36.46 44.99c-.53-.31-1.11-.47-1.7-.5h-.32c-.6.02-1.18.18-1.71.49L1.85 62.74c-1.16.66-1.87 1.89-1.87 3.24l.06 47.84c0 .66.34 1.28.93 1.61 .57.34 1.28.34 1.85 0l18.35-10.51c1.16-.69 1.86-1.91 1.86-3.24V79.32c0-1.34.7-2.57 1.86-3.23l7.81-4.51c.58-.34 1.21-.51 1.86-.51 .63 0 1.28.16 1.85.5l7.81 4.5c1.15.66 1.86 1.89 1.86 3.22v22.35c0 1.33.71 2.55 1.86 3.23l18.34 10.5c.57.34 1.29.34 1.86 0 .56-.33.92-.95.92-1.62l.06-47.85Z"/><path d="M217.78.23c-.58-.33-1.29-.32-1.86.02 -.57.33-.93.94-.93 1.6v47.38c0 .46-.25.89-.66 1.13 -.41.23-.91.23-1.31 0l-7.74-4.46c-1.16-.67-2.58-.67-3.73 0l-30.9 17.82c-1.16.66-1.87 1.89-1.87 3.23v35.66c0 1.33.71 2.56 1.86 3.23l30.88 17.84c1.15.66 2.57.66 3.73 0l30.89-17.85c1.15-.67 1.86-1.9 1.86-3.24v-88.9c0-1.36-.74-2.6-1.92-3.26L217.69.17Zm-2.87 90.69c0 .33-.18.64-.47.8l-10.61 6.11c-.29.16-.65.16-.94 0l-10.61-6.12c-.29-.17-.47-.48-.47-.81V78.65c0-.34.17-.65.46-.81l10.6-6.13c.28-.17.64-.17.93 0l10.6 6.12c.28.16.46.47.46.8v12.24Z"/><path d="M320.64 78.36c1.14-.67 1.85-1.9 1.85-3.23v-8.65c0-1.33-.71-2.56-1.86-3.23l-30.7-17.82c-1.16-.68-2.59-.68-3.74-.01l-30.88 17.82c-1.16.66-1.87 1.89-1.87 3.23v35.65c0 1.34.72 2.57 1.88 3.24L286 122.84c1.13.64 2.51.65 3.65.02l18.56-10.32c.58-.33.95-.95.95-1.62 0-.68-.36-1.3-.94-1.64l-31.08-17.84c-.59-.34-.94-.96-.94-1.62V78.64c0-.67.35-1.29.93-1.62l9.67-5.58c.57-.34 1.28-.34 1.86 0l9.67 5.57c.57.33.93.94.93 1.61v8.79c0 .66.35 1.28.93 1.61 .57.33 1.29.33 1.86-.01l18.49-10.76Z"/></g><g fill="#2261A8"><path d="M287.63 76.69c.22-.13.49-.13.71 0l5.92 3.41c.22.12.35.36.35.61v6.84c0 .25-.14.49-.36.61l-5.93 3.41c-.23.12-.5.12-.72 0l-5.93-3.42c-.23-.13-.36-.37-.36-.62v-6.85c0-.26.13-.5.35-.62l5.92-3.42Z"/><path d="M117.17 45.62L86.53 63.3c-1.15.66-1.86 1.88-1.86 3.2v35.38c0 1.32.7 2.54 1.84 3.2l30.63 17.69c1.14.66 2.55.66 3.7 0l30.63-17.7c1.14-.67 1.85-1.89 1.85-3.21V66.47c0-1.33-.71-2.55-1.86-3.21l-30.64-17.69c-.58-.34-1.22-.5-1.86-.5 -.64 0-1.28.16-1.85.49"/></g></g></svg>
